packages/katcn/src/icons/svg/maximize-solid.svg

<svg width="24" height="24" viewBox="0 0 24 24" fill="none" xmlns="http://www.w3.org/2000/svg">
<path d="M17.1327 22H14.8367C13.8265 22 13 21.1735 13 20.1633C13 19.1531 13.8265 18.3265 14.8367 18.3265H17.1327C17.7755 18.3265 18.3265 17.7755 18.3265 17.1327V14.8367C18.3265 13.8265 19.1531 13 20.1633 13C21.1735 13 22 13.8265 22 14.8367V17.1327C22 19.7959 19.7959 22 17.1327 22Z" fill="black"/>
<path d="M9.07143 22H6.86735C4.20408 22 2 19.7959 2 17.1327V14.8367C2 13.8265 2.82653 13 3.83673 13C4.84694 13 5.67347 13.8265 5.67347 14.8367V17.1327C5.67347 17.7755 6.22449 18.3265 6.86735 18.3265H9.16327C10.1735 18.3265 11 19.1531 11 20.1633C11 21.1735 10.0816 22 9.07143 22Z" fill="black"/>
<path d="M3.83673 11C2.82653 11 2 10.1649 2 9.14433V6.91753C2 4.2268 4.20408 2 6.86735 2H9.16327C10.1735 2 11 2.83505 11 3.85567C11 4.87629 10.1735 5.71134 9.16327 5.71134H6.86735C6.22449 5.71134 5.67347 6.26804 5.67347 6.91753V9.23711C5.67347 10.1649 4.84694 11 3.83673 11Z" fill="black"/>
<path d="M20.1633 11C19.1531 11 18.3265 10.1649 18.3265 9.14433V6.91753C18.3265 6.26804 17.7755 5.71134 17.1327 5.71134H14.8367C13.8265 5.71134 13 4.87629 13 3.85567C13 2.83505 13.8265 2 14.8367 2H17.1327C19.7959 2 22 4.2268 22 6.91753V9.23711C22 10.1649 21.1735 11 20.1633 11Z" fill="black"/>
</svg>

<svg xmlns="http://www.w3.org/2000/svg" fill="none" viewBox="0 0 24 24"><path fill="#000" d="M17.133 22h-2.296A1.84 1.84 0 0 1 13 20.163c0-1.01.826-1.837 1.837-1.837h2.296c.643 0 1.194-.55 1.194-1.193v-2.296c0-1.01.826-1.837 1.836-1.837S22 13.826 22 14.837v2.296C22 19.796 19.796 22 17.133 22m-8.062 0H6.867C4.204 22 2 19.796 2 17.133v-2.296C2 13.827 2.827 13 3.837 13s1.836.826 1.836 1.837v2.296c0 .643.551 1.194 1.194 1.194h2.296c1.01 0 1.837.826 1.837 1.836S10.082 22 9.071 22M3.837 11A1.85 1.85 0 0 1 2 9.144V6.918C2 4.227 4.204 2 6.867 2h2.296C10.173 2 11 2.835 11 3.856c0 1.02-.826 1.855-1.837 1.855H6.867c-.643 0-1.194.557-1.194 1.207v2.32c0 .927-.826 1.762-1.836 1.762m16.326 0a1.85 1.85 0 0 1-1.837-1.856V6.918c0-.65-.55-1.207-1.193-1.207h-2.296A1.85 1.85 0 0 1 13 3.856C13 2.835 13.826 2 14.837 2h2.296C19.796 2 22 4.227 22 6.918v2.32c0 .927-.826 1.762-1.837 1.762"/></svg>
